newicons/led.svg

<?xml version="1.0" encoding="UTF-8" standalone="no"?>
<svg
   id="a"
   viewBox="0 0 48 48"
   width="48px"
   height="48px"
   version="1.1"
   sodipodi:docname="mohuanled.svg"
   xml:space="preserve"
   inkscape:version="1.4.2 (ebf0e940d0, 2025-05-08)"
   xmlns:inkscape="http://www.inkscape.org/namespaces/inkscape"
   xmlns:sodipodi="http://sodipodi.sourceforge.net/DTD/sodipodi-0.dtd"
   xmlns="http://www.w3.org/2000/svg"
   xmlns:svg="http://www.w3.org/2000/svg"><sodipodi:namedview
     id="namedview1"
     pagecolor="#505050"
     bordercolor="#eeeeee"
     borderopacity="1"
     inkscape:showpageshadow="0"
     inkscape:pageopacity="0"
     inkscape:pagecheckerboard="0"
     inkscape:deskcolor="#505050"
     inkscape:zoom="5.9210527"
     inkscape:cx="18.155555"
     inkscape:cy="12.835555"
     inkscape:window-width="1516"
     inkscape:window-height="902"
     inkscape:window-x="0"
     inkscape:window-y="0"
     inkscape:window-maximized="1"
     inkscape:current-layer="a"
     showguides="true" /><defs
     id="defs1"><style
       id="style1">.d{fill:none;stroke:#fff;stroke-linecap:round;stroke-linejoin:round;}</style><style
       id="style1-7">
      .cls-1 {
        fill: none;
        stroke:#fff;
        stroke-linecap: round;
        stroke-linejoin: round;
      }
    </style><style
       id="style1-2">.q{fill:#fff;}.r,.s{fill:none;stroke:#fff;stroke-linecap:round;stroke-linejoin:round;}.s{stroke-width:1px;}</style><style
       id="style1-4">.c{fill:none;stroke:#fff;stroke-linecap:round;stroke-linejoin:round;}</style><style
       id="style1-6">.a{fill:none;stroke:#fff;stroke-linecap:round;stroke-linejoin:round;}</style><style
       id="style1-48">.a{fill:none;stroke:#fff;stroke-linecap:round;stroke-linejoin:round;}</style><style
       id="style1-0">.q{fill:#fff;}.r,.s{fill:none;stroke:#fff;stroke-linecap:round;stroke-linejoin:round;}.s{stroke-width:1px;}</style><style
       id="style1-75">.q{fill:#fff;}.r,.s{fill:none;stroke:#fff;stroke-linecap:round;stroke-linejoin:round;}.s{stroke-width:1px;}</style><style
       id="style1-06">.a{fill:none;stroke:#fff;stroke-linecap:round;stroke-linejoin:round;}</style><style
       id="style1-753">.a{fill:none;stroke:#fff;stroke-linecap:round;stroke-linejoin:round;}</style></defs><path
     id="circle1"
     style="display:inline;fill:none;stroke-width:0.999999;stroke-linecap:round;stroke-linejoin:round;stroke-opacity:1"
     class="c"
     d="m 45.499998,24 a 21.499999,21.49664 0 0 1 -21.5,21.496641 A 21.499999,21.49664 0 0 1 2.4999996,24 21.499999,21.49664 0 0 1 23.999998,2.5033599 21.499999,21.49664 0 0 1 45.499998,24 Z" /><path
     id="circle2"
     style="display:inline;fill:none;stroke-width:0.999999;stroke-linecap:round;stroke-linejoin:round;stroke-opacity:1"
     class="c"
     d="M 39.170196,24 A 15.1702,15.16783 0 0 1 23.999998,39.167831 15.1702,15.16783 0 0 1 8.829798,24 15.1702,15.16783 0 0 1 23.999998,8.8321705 15.1702,15.16783 0 0 1 39.170196,24 Z" /><path
     id="path42"
     style="display:inline;fill:none;fill-opacity:1;stroke:#ffffff;stroke-width:0.999999;stroke-linecap:round;stroke-linejoin:round;stroke-dasharray:none;stroke-opacity:1"
     d="m 39.169925,24.000003 h 6.330077" /><path
     id="path103"
     style="display:inline;fill:none;fill-opacity:1;stroke:#ffffff;stroke-width:0.999999;stroke-linecap:round;stroke-linejoin:round;stroke-dasharray:none;stroke-opacity:1"
     d="M 2.500007,24.000003 H 8.8300821" /><path
     id="path45"
     style="display:inline;fill:none;fill-opacity:1;stroke:#ffffff;stroke-width:0.999999;stroke-linecap:round;stroke-linejoin:round;stroke-dasharray:none;stroke-opacity:1"
     d="M 31.585823,10.863027 34.750004,5.3833625" /><path
     id="path95"
     style="display:inline;fill:none;fill-opacity:1;stroke:#ffffff;stroke-width:0.999999;stroke-linecap:round;stroke-linejoin:round;stroke-dasharray:none;stroke-opacity:1"
     d="m 13.250006,42.616641 3.164178,-5.479662" /><path
     id="path46"
     style="display:inline;fill:none;fill-opacity:1;stroke:#ffffff;stroke-width:0.999999;stroke-linecap:round;stroke-linejoin:round;stroke-dasharray:none;stroke-opacity:1"
     d="m 31.585823,37.136979 3.164181,5.479662" /><path
     id="path81"
     style="display:inline;fill:none;fill-opacity:1;stroke:#ffffff;stroke-width:0.999999;stroke-linecap:round;stroke-linejoin:round;stroke-dasharray:none;stroke-opacity:1"
     d="M 13.250006,5.3833625 16.414184,10.86303" /><path
     id="polyline36"
     style="fill:none;stroke-width:0.999999;stroke-linecap:round;stroke-linejoin:round;stroke-opacity:1"
     class="r"
     d="m 13.341746,19.273603 v 9.399149 h 4.130677" /><path
     id="line37"
     style="fill:none;stroke-width:0.999999;stroke-linecap:round;stroke-linejoin:round;stroke-opacity:1"
     class="r"
     d="m 20.78673,24.000003 h 2.719227" /><path
     id="polyline37"
     style="fill:none;stroke-width:0.999999;stroke-linecap:round;stroke-linejoin:round;stroke-opacity:1"
     class="r"
     d="M 24.957384,28.74052 H 20.78673 v -9.481036 h 4.170654" /><path
     class="r"
     d="m 28.566224,28.821469 v -9.642936 h 2.043017 c 2.193966,0 3.972535,1.88881 3.972535,4.218784 v 1.205367 c 0,2.329964 -1.778569,4.218785 -3.972535,4.218785 z"
     id="path43"
     style="stroke:#ffffff;stroke-width:0.999999;stroke-opacity:1" /></svg>

<?xml version="1.0" encoding="UTF-8"?><svg id="b" xmlns="http://www.w3.org/2000/svg" viewBox="0 0 48 48"><defs><style>.o{fill:none;stroke:#fff;stroke-linecap:round;stroke-linejoin:round;}</style></defs><path id="c" class="o" d="M45.5,24c0,11.8741-9.6259,21.5-21.5,21.5h0c-11.8741,0-21.5-9.6259-21.5-21.5,0,0,0,0,0,0C2.5,12.1259,12.1259,2.5,24,2.5h0c11.8741,0,21.5,9.6259,21.5,21.5h0Z"/><path id="d" class="o" d="M39.1702,24c0,8.3783-6.7919,15.1702-15.1702,15.1702s-15.1702-6.7919-15.1702-15.1702h0c0-8.3783,6.7919-15.1702,15.1702-15.1702s15.1702,6.7919,15.1702,15.1702Z"/><path id="e" class="o" d="M39.1699,24h6.3301"/><path id="f" class="o" d="M2.5,24h6.3301"/><path id="g" class="o" d="M31.5858,10.861l3.1642-5.4805"/><path id="h" class="o" d="M13.25,42.6195l3.1642-5.4805"/><path id="i" class="o" d="M31.5858,37.139l3.1642,5.4805"/><path id="j" class="o" d="M13.25,5.3805l3.1642,5.4805"/><path id="k" class="o" d="M13.3417,19.2729v9.4006h4.1307"/><path id="l" class="o" d="M20.7867,24h2.7192"/><path id="m" class="o" d="M24.9574,28.7413h-4.1707v-9.4825h4.1707"/><path id="n" class="o" d="M28.5662,28.8222v-9.6444h2.043c2.194,0,3.9725,1.8891,3.9725,4.2194v1.2056c0,2.3303-1.7786,4.2194-3.9725,4.2194h-2.043Z"/></svg>
